X: 3117
T: Beare Island
R: reel
M: 4/4
K: Edorian
|:EB^GB AGEc|dBcA Beec|d2 fd AFDF|(3GFE FD EDB,A,|
B,DEF ~G3A|BAGA Bdef|~g2 fg edBc|1 dBAF E3 D:|2 dBAF E3 A||
|:Bdef gfed|B2 AG FDDA|Bdef gfed|Be^df e2 ef|
edBc ~d3B|BcdB AFDF|G~B3 AFDF|1 GE{G}ED E3 A:|2 GE{G}ED E3 D||

